; generated by AnycubicSlicer 1.0.0-alpha1 on 2023-07-03 at 19:53:32 UTC


;
;

;
;
; 

; external perimeters extrusion width = 0.45mm
; perimeters extrusion width = 0.45mm
; infill extrusion width = 0.45mm
; solid infill extrusion width = 0.45mm
; top infill extrusion width = 0.40mm
; first layer extrusion width = 0.42mm

M73 P0 R21
M107
;TYPE:Custom
G90 ; use absolute coordinates
M83 ; extruder relative mode
M204 S1250 T1250
M104 S215 ; set extruder temp
M140 S60 ; set bed temp
G28 ; home all
G1 Y1.0 Z0.3 F1000 ; move print head up
M190 S60 ; wait for bed temp
M109 S215 ; wait for extruder temp
G92 E0.0
; initial load
G1 X205.0 E19 F1000
G1 Y1.6
G1 X5.0 E19 F1000
G92 E0.0
; intro line
G1 Y2.0 Z0.2 F1000
M73 P1 R21
G1 X65.0 E9.0 F1000
G1 X105.0 E12.5 F1000
G92 E0.0
G21 ; set units to millimeters
G90 ; use absolute coordinates
M83 ; use relative distances for extrusion
M900 K0.05 ; Filament gcode LA 1.5
M900 K200 ; Filament gcode LA 1.0
M107
;LAYER_CHANGE
;Z:0.2
;HEIGHT:0.2
;BEFORE_LAYER_CHANGE
G92 E0.0
;0.2
M73 P2 R21
G1 E-6 F2400
G1 Z.075 F10800
G1 Z.2
;AFTER_LAYER_CHANGE
;0.2
G1 Z.275
G1 X97.476 Y97.28
G1 Z.2
G1 E6 F3000
M204 S800
;TYPE:Skirt/Brim
;WIDTH:0.42
G1 F1200
G1 X98.277 Y96.573 E.0335
G1 X99.561 Y95.71 E.04851
G1 X100.91 Y95.047 E.04713
G1 X102.001 Y94.646 E.03644
G1 X103.707 Y94.281 E.0547
G1 X106.293 Y94.281 E.08108
G1 X107.346 Y94.469 E.03354
G1 X108.443 Y94.791 E.03585
G1 X110.571 Y95.783 E.07362
G1 X111.923 Y96.738 E.0519
G1 X112.72 Y97.476 E.03406
G1 X113.427 Y98.277 E.0335
G1 X114.29 Y99.561 E.04851
G1 X114.953 Y100.91 E.04713
G1 X115.354 Y102.001 E.03644
G1 X115.719 Y103.707 E.0547
G1 X115.719 Y106.293 E.08108
G1 X115.531 Y107.346 E.03354
G1 X115.209 Y108.443 E.03585
G1 X114.217 Y110.571 E.07362
G1 X113.262 Y111.923 E.0519
G1 X112.524 Y112.72 E.03406
G1 X111.723 Y113.427 E.0335
G1 X110.439 Y114.29 E.04851
G1 X109.09 Y114.953 E.04713
G1 X107.999 Y115.354 E.03644
G1 X106.293 Y115.719 E.0547
G1 X103.707 Y115.719 E.08108
G1 X102.654 Y115.531 E.03354
G1 X101.557 Y115.209 E.03585
G1 X99.429 Y114.217 E.07362
G1 X98.077 Y113.262 E.0519
G1 X97.28 Y112.524 E.03406
G1 X96.573 Y111.723 E.0335
G1 X95.71 Y110.439 E.04851
G1 X95.047 Y109.09 E.04713
G1 X94.646 Y107.999 E.03644
G1 X94.281 Y106.293 E.0547
G1 X94.281 Y103.707 E.08108
G1 X94.469 Y102.654 E.03354
G1 X94.791 Y101.557 E.03585
G1 X95.783 Y99.429 E.07362
G1 X96.738 Y98.077 E.0519
G1 X97.435 Y97.324 E.03217
M204 S1000
G1 X97.711 Y97.579 F10800
M204 S800
G1 F1200
G1 X98.502 Y96.876 E.03318
G1 X99.733 Y96.046 E.04655
G1 X101.066 Y95.39 E.04658
G1 X102.1 Y95.01 E.03454
G1 X103.767 Y94.653 E.05345
G1 X106.233 Y94.653 E.07732
G1 X107.259 Y94.836 E.03268
G1 X108.322 Y95.148 E.03474
G1 X110.381 Y96.108 E.07123
G1 X111.671 Y97.018 E.0495
G1 X112.44 Y97.729 E.03284
G1 X113.124 Y98.502 E.03236
G1 X113.954 Y99.733 E.04655
G1 X114.61 Y101.066 E.04658
G1 X114.99 Y102.1 E.03454
G1 X115.347 Y103.767 E.05345
G1 X115.347 Y106.233 E.07732
G1 X115.164 Y107.259 E.03268
G1 X114.852 Y108.322 E.03474
G1 X113.892 Y110.381 E.07123
G1 X112.982 Y111.671 E.0495
G1 X112.271 Y112.44 E.03284
G1 X111.498 Y113.124 E.03236
G1 X110.267 Y113.954 E.04655
G1 X108.934 Y114.61 E.04658
G1 X107.9 Y114.99 E.03454
G1 X106.233 Y115.347 E.05345
G1 X103.767 Y115.347 E.07732
G1 X102.741 Y115.164 E.03268
G1 X101.678 Y114.852 E.03474
G1 X99.619 Y113.892 E.07123
G1 X98.329 Y112.982 E.0495
G1 X97.56 Y112.271 E.03284
G1 X96.876 Y111.498 E.03236
G1 X96.046 Y110.267 E.04655
G1 X95.39 Y108.934 E.04658
G1 X95.01 Y107.9 E.03454
G1 X94.653 Y106.233 E.05345
G1 X94.653 Y103.767 E.07732
G1 X94.836 Y102.741 E.03268
G1 X95.148 Y101.678 E.03474
G1 X96.108 Y99.619 E.07123
G1 X97.018 Y98.329 E.0495
G1 X97.67 Y97.623 E.03013
M204 S1000
; printing object d6-die-piece.stl id:0 copy 0
G1 E-3.6 F2400
;WIPE_START
G1 F8640
G1 X98.502 Y96.876 E-.29506
G1 X99.733 Y96.046 E-.39179
G1 X101.066 Y95.39 E-.39205
G1 X102.1 Y95.01 E-.2907
G1 X103.767 Y94.653 E-.44988
G1 X105.967 Y94.653 E-.58052
;WIPE_END
G1 Z.275 F10800
M73 P3 R21
G1 X100.009 Y100.009
G1 Z.2
G1 E6 F3000
M204 S800
;TYPE:Perimeter
;WIDTH:0.419999
G1 F1200
G1 X100.547 Y99.524 E.02271
G1 X101.13 Y99.098 E.02264
G1 X101.662 Y98.788 E.01931
G1 X102.408 Y98.439 E.02582
G1 X103.049 Y98.218 E.02126
G1 X103.697 Y98.061 E.02091
G1 X104.349 Y97.969 E.02065
G1 X105 Y97.938 E.02043
G1 X105.651 Y97.969 E.02043
G1 X106.303 Y98.061 E.02065
G1 X106.951 Y98.218 E.02091
G1 X107.592 Y98.439 E.02126
G1 X108.338 Y98.788 E.02582
G1 X108.87 Y99.098 E.01931
G1 X109.453 Y99.524 E.02264
G1 X109.991 Y100.009 E.02271
G1 X110.476 Y100.547 E.02271
G1 X110.902 Y101.13 E.02264
G1 X111.212 Y101.662 E.01931
G1 X111.561 Y102.408 E.02582
G1 X111.782 Y103.049 E.02126
G1 X111.939 Y103.697 E.02091
G1 X112.031 Y104.349 E.02065
G1 X112.062 Y105 E.02043
G1 X112.031 Y105.651 E.02043
M73 P3 R20
G1 X111.939 Y106.303 E.02065
G1 X111.782 Y106.951 E.02091
G1 X111.561 Y107.592 E.02126
G1 X111.212 Y108.338 E.02582
G1 X110.902 Y108.87 E.01931
G1 X110.476 Y109.453 E.02264
G1 X109.991 Y109.991 E.02271
G1 X109.453 Y110.476 E.02271
G1 X108.87 Y110.902 E.02264
G1 X108.338 Y111.212 E.01931
G1 X107.592 Y111.561 E.02582
G1 X106.951 Y111.782 E.02126
G1 X106.303 Y111.939 E.02091
G1 X105.651 Y112.031 E.02065
G1 X105 Y112.062 E.02043
G1 X104.349 Y112.031 E.02043
G1 X103.697 Y111.939 E.02065
G1 X103.049 Y111.782 E.02091
G1 X102.408 Y111.561 E.02126
G1 X101.662 Y111.212 E.02582
G1 X101.13 Y110.902 E.01931
G1 X100.547 Y110.476 E.02264
G1 X100.009 Y109.991 E.02271
G1 X99.524 Y109.453 E.02271
G1 X99.098 Y108.87 E.02264
G1 X98.788 Y108.338 E.01931
G1 X98.439 Y107.592 E.02582
G1 X98.218 Y106.951 E.02126
G1 X98.061 Y106.303 E.02091
G1 X97.969 Y105.651 E.02065
G1 X97.938 Y105 E.02043
G1 X97.969 Y104.349 E.02043
G1 X98.061 Y103.697 E.02065
G1 X98.218 Y103.049 E.02091
G1 X98.439 Y102.408 E.02126
G1 X98.788 Y101.662 E.02582
G1 X99.098 Y101.13 E.01931
G1 X99.524 Y100.547 E.02264
G1 X99.969 Y100.054 E.02082
M204 S1000
G1 X99.742 Y99.742 F10800
M204 S800
;TYPE:External perimeter
G1 F1200
G1 X100.309 Y99.231 E.02393
G1 X100.923 Y98.783 E.02383
G1 X101.487 Y98.454 E.02047
G1 X102.266 Y98.089 E.02697
G1 X102.943 Y97.856 E.02245
G1 X103.626 Y97.69 E.02204
G1 X104.314 Y97.593 E.02179
G1 X105 Y97.56 E.02153
G1 X105.686 Y97.593 E.02153
G1 X106.374 Y97.69 E.02179
G1 X107.057 Y97.856 E.02204
G1 X107.734 Y98.089 E.02245
G1 X108.513 Y98.454 E.02697
G1 X109.077 Y98.783 E.02047
G1 X109.691 Y99.231 E.02383
G1 X110.258 Y99.742 E.02393
G1 X110.769 Y100.309 E.02393
G1 X111.217 Y100.923 E.02383
G1 X111.546 Y101.487 E.02047
G1 X111.911 Y102.266 E.02697
G1 X112.144 Y102.943 E.02245
G1 X112.31 Y103.626 E.02204
G1 X112.407 Y104.314 E.02179
G1 X112.44 Y105 E.02153
G1 X112.407 Y105.686 E.02153
G1 X112.31 Y106.374 E.02179
G1 X112.144 Y107.057 E.02204
G1 X111.911 Y107.734 E.02245
G1 X111.546 Y108.513 E.02697
G1 X111.217 Y109.077 E.02047
G1 X110.769 Y109.691 E.02383
G1 X110.258 Y110.258 E.02393
G1 X109.691 Y110.769 E.02393
G1 X109.077 Y111.217 E.02383
G1 X108.513 Y111.546 E.02047
G1 X107.734 Y111.911 E.02697
G1 X107.057 Y112.144 E.02245
G1 X106.374 Y112.31 E.02204
G1 X105.686 Y112.407 E.02179
G1 X105 Y112.44 E.02153
G1 X104.314 Y112.407 E.02153
G1 X103.626 Y112.31 E.02179
G1 X102.943 Y112.144 E.02204
G1 X102.266 Y111.911 E.02245
G1 X101.487 Y111.546 E.02697
G1 X100.923 Y111.217 E.02047
G1 X100.309 Y110.769 E.02383
G1 X99.742 Y110.258 E.02393
G1 X99.231 Y109.691 E.02393
G1 X98.783 Y109.077 E.02383
G1 X98.454 Y108.513 E.02047
G1 X98.089 Y107.734 E.02697
G1 X97.856 Y107.057 E.02245
G1 X97.69 Y106.374 E.02204
G1 X97.593 Y105.686 E.02179
G1 X97.56 Y105 E.02153
G1 X97.593 Y104.314 E.02153
G1 X97.69 Y103.626 E.02179
G1 X97.856 Y102.943 E.02204
G1 X98.089 Y102.266 E.02245
G1 X98.454 Y101.487 E.02697
G1 X98.783 Y100.923 E.02047
G1 X99.231 Y100.309 E.02383
G1 X99.702 Y99.787 E.02204
M204 S1000
G1 X100.128 Y99.846 F10800
G1 E-3.6 F2400
;WIPE_START
G1 F8640
G1 X100.309 Y99.231 E-.21722
G1 X100.923 Y98.783 E-.20057
G1 X101.487 Y98.454 E-.1723
G1 X102.266 Y98.089 E-.22702
G1 X102.943 Y97.856 E-.18894
G1 X103.626 Y97.69 E-.18548
G1 X104.314 Y97.593 E-.18335
G1 X105 Y97.56 E-.18124
G1 X105.686 Y97.593 E-.18124
G1 X106.374 Y97.69 E-.18335
G1 X107.057 Y97.856 E-.18548
G1 X107.734 Y98.089 E-.18894
G1 X108.094 Y98.258 E-.10487
;WIPE_END
G1 Z.275 F10800
G1 X106.324 Y101.741
G1 Z.2
G1 E6 F3000
M204 S800
;TYPE:Perimeter
G1 F1200
G1 X106.708 Y101.874 E.01274
G1 X107.096 Y102.086 E.01386
G1 X107.567 Y102.46 E.01886
G1 X107.799 Y102.696 E.01038
G1 X108.184 Y103.275 E.0218
G1 X108.442 Y103.894 E.02103
G1 X108.551 Y104.413 E.01663
G1 X108.584 Y105.071 E.02066
G1 X108.534 Y105.781 E.02232
G1 X108.404 Y106.31 E.01708
G1 X108.149 Y106.82 E.01788
G1 X107.797 Y107.192 E.01606
G1 X107.349 Y107.385 E.01529
G1 X106.962 Y107.402 E.01215
G1 X106.596 Y107.282 E.01208
G1 X106.322 Y107.071 E.01084
G1 X106.094 Y106.742 E.01255
G1 X105.945 Y106.366 E.01268
G1 X105.623 Y106.854 E.01833
G1 X105.278 Y107.175 E.01478
G1 X104.866 Y107.41 E.01487
G1 X104.342 Y107.555 E.01705
G1 X103.846 Y107.581 E.01557
G1 X103.373 Y107.526 E.01493
G1 X102.879 Y107.36 E.01634
G1 X102.432 Y107.093 E.01633
G1 X102.047 Y106.712 E.01698
G1 X101.749 Y106.244 E.0174
G1 X101.541 Y105.69 E.01855
G1 X101.419 Y104.888 E.02544
G1 X101.429 Y104.231 E.0206
G1 X101.59 Y103.445 E.02516
G1 X101.913 Y102.789 E.02293
G1 X102.049 Y102.589 E.00758
G1 X102.51 Y102.14 E.02018
G1 X103.004 Y101.839 E.01814
G1 X103.835 Y101.564 E.02745
G1 X104.497 Y101.485 E.0209
G1 X105.23 Y101.497 E.02299
G1 X105.774 Y101.572 E.01722
G1 X106.267 Y101.723 E.01617
M204 S1000
G1 E-3.6 F2400
;WIPE_START
G1 F8640
G1 X106.708 Y101.874 E-.12301
G1 X107.096 Y102.086 E-.11668
G1 X107.567 Y102.46 E-.15871
G1 X107.799 Y102.696 E-.08733
G1 X108.184 Y103.275 E-.18349
G1 X108.442 Y103.894 E-.17697
G1 X108.551 Y104.413 E-.13995
G1 X108.584 Y105.071 E-.17386
G1 X108.534 Y105.781 E-.18783
G1 X108.404 Y106.31 E-.14375
G1 X108.149 Y106.82 E-.15047
G1 X107.797 Y107.192 E-.13515
G1 X107.349 Y107.385 E-.12873
G1 X106.962 Y107.402 E-.10222
G1 X106.596 Y107.282 E-.10164
G1 X106.322 Y107.071 E-.09126
G1 X106.094 Y106.742 E-.10563
G1 X105.964 Y106.413 E-.09332
;WIPE_END
G1 Z.275 F10800
G1 X106.252 Y104.308
G1 Z.2
G1 E6 F3000
M204 S800
;WIDTH:0.518864
G1 F1200
G1 X106.624 Y104.483 E.01627
G1 X106.755 Y104.605 E.00708
G1 X106.876 Y104.855 E.01099
G1 X106.677 Y104.934 E.00847
G1 X106.4 Y104.958 E.011
G1 X106.291 Y105.019 E.00494
G1 X106.296 Y104.811 E.00823
G1 X106.257 Y104.367 E.01764
M204 S1000
G1 X106.253 Y105.495 F10800
M204 S800
;TYPE:External perimeter
;WIDTH:0.451574
G1 F1200
G1 X106.429 Y105.384 E.00707
;WIDTH:0.419999
G1 X106.806 Y105.341 E.0119
G1 X107.172 Y105.194 E.01237
G1 X107.276 Y105.067 E.00515
G1 X107.296 Y104.754 E.00983
G1 X107.144 Y104.391 E.01234
G1 X106.835 Y104.112 E.01305
G1 X106.507 Y103.94 E.01161
G1 X106.07 Y103.811 E.01429
G1 X105.699 Y103.78 E.01167
G1 X105.82 Y104.284 E.01625
G1 X105.871 Y104.848 E.01776
;WIDTH:0.451574
G1 X105.859 Y105.407 E.019
G1 X105.74 Y105.87 E.01624
;WIDTH:0.419999
G1 X105.495 Y106.384 E.01785
G1 X105.346 Y106.597 E.00815
G1 X105.08 Y106.854 E.0116
G1 X104.747 Y107.053 E.01216
G1 X104.305 Y107.18 E.01442
G1 X103.88 Y107.205 E.01335
G1 X103.484 Y107.165 E.01248
G1 X103.063 Y107.031 E.01385
G1 X102.688 Y106.815 E.01357
G1 X102.365 Y106.51 E.01393
G1 X102.067 Y106.042 E.0174
G1 X101.897 Y105.566 E.01585
G1 X101.793 Y104.836 E.02312
G1 X101.806 Y104.241 E.01866
G1 X101.958 Y103.525 E.02295
G1 X102.246 Y102.965 E.01974
G1 X102.57 Y102.608 E.01512
G1 X102.808 Y102.384 E.01025
G1 X103.134 Y102.193 E.01185
G1 X103.84 Y101.948 E.02343
G1 X104.541 Y101.86 E.02215
G1 X105.221 Y101.874 E.02133
G1 X105.818 Y101.979 E.01901
G1 X106.477 Y102.182 E.02162
G1 X106.875 Y102.392 E.01411
G1 X107.304 Y102.73 E.01712
G1 X107.729 Y103.231 E.0206
G1 X107.996 Y103.769 E.01883
G1 X108.096 Y104.051 E.00938
G1 X108.187 Y104.599 E.01742
G1 X108.21 Y105.154 E.01742
G1 X108.158 Y105.747 E.01866
G1 X108.033 Y106.232 E.0157
G1 X107.781 Y106.689 E.01636
G1 X107.478 Y106.937 E.01228
G1 X107.219 Y107.024 E.00857
G1 X106.889 Y106.994 E.01039
G1 X106.726 Y106.92 E.00561
G1 X106.528 Y106.732 E.00856
G1 X106.352 Y106.362 E.01285
;WIDTH:0.445137
G1 X106.241 Y105.588 E.02615
;WIDTH:0.451574
G1 X106.245 Y105.554 E.00116
M204 S1000
G1 E-3.6 F2400
;WIPE_START
G1 F8640
G1 X106.429 Y105.384 E-.06611
G1 X106.806 Y105.341 E-.10013
G1 X107.172 Y105.194 E-.10408
G1 X107.276 Y105.067 E-.04332
G1 X107.296 Y104.754 E-.08277
G1 X107.144 Y104.391 E-.10385
G1 X106.835 Y104.112 E-.10986
G1 X106.507 Y103.94 E-.09773
G1 X106.07 Y103.811 E-.12024
G1 X105.699 Y103.78 E-.09824
G1 X105.82 Y104.284 E-.13678
G1 X105.871 Y104.848 E-.14944
G1 X105.859 Y105.407 E-.14755
G1 X105.74 Y105.87 E-.12615
G1 X105.495 Y106.384 E-.15026
G1 X105.346 Y106.597 E-.0686
G1 X105.08 Y106.854 E-.09761
G1 X104.747 Y107.053 E-.10237
G1 X104.305 Y107.18 E-.12136
G1 X103.88 Y107.205 E-.11235
G1 X103.484 Y107.165 E-.10503
G1 X103.063 Y107.031 E-.11659
G1 X102.933 Y106.956 E-.03958
;WIPE_END
G1 Z.275 F10800
G1 X108.712 Y99.137
G1 Z.2
G1 E6 F3000
M204 S800
;TYPE:Solid infill
;WIDTH:0.429799
G1 F1200
G1 X109.851 Y100.276 E.05182
G1 X110.256 Y100.726 E.01948
G1 X110.665 Y101.285 E.02228
G1 X110.961 Y101.793 E.01891
G1 X111.084 Y102.057 E.00937
G1 X107.943 Y98.916 E.1429
G1 X107.486 Y98.702 E.01623
G1 X107.022 Y98.542 E.01579
G1 X111.458 Y102.978 E.20181
G1 X111.653 Y103.72 E.02468
G1 X106.28 Y98.347 E.24444
G1 X105.639 Y98.253 E.02084
G1 X111.747 Y104.361 E.27788
G1 X111.776 Y104.937 E.01855
G1 X105.064 Y98.225 E.30536
G1 X104.537 Y98.245 E.01697
G1 X111.757 Y105.465 E.32847
G1 X111.702 Y105.957 E.01593
G1 X104.043 Y98.298 E.34844
M73 P4 R20
G1 X103.579 Y98.381 E.01516
G1 X106.803 Y101.605 E.14667
G1 X107.192 Y101.812 E.01418
G1 X107.64 Y102.136 E.01779
G1 X107.978 Y102.468 E.01524
G1 X108.321 Y102.935 E.01864
G1 X108.539 Y103.342 E.01485
G1 X111.619 Y106.421 E.1401
G1 X111.512 Y106.862 E.0146
G1 X108.783 Y104.133 E.12415
G1 X108.836 Y104.405 E.00891
G1 X108.849 Y104.745 E.01095
G1 X111.373 Y107.269 E.11483
G1 X111.217 Y107.66 E.01354
G1 X108.86 Y105.303 E.10723
G1 X108.809 Y105.8 E.01607
G1 X111.042 Y108.033 E.10159
G1 X110.853 Y108.391 E.01302
G1 X108.706 Y106.244 E.09768
G1 X108.627 Y106.522 E.0093
G1 X108.56 Y106.645 E.00451
G1 X110.65 Y108.735 E.09508
G1 X110.419 Y109.051 E.01259
G1 X108.365 Y106.997 E.09344
G1 X108.327 Y107.066 E.00253
G1 X108.108 Y107.287 E.01001
G1 X110.18 Y109.359 E.09426
G1 X109.92 Y109.647 E.01248
G1 X107.786 Y107.512 E.09711
G1 X107.39 Y107.663 E.01363
G1 X109.647 Y109.92 E.10268
G1 X109.359 Y110.18 E.01248
G1 X106.846 Y107.667 E.11433
G1 X106.47 Y107.536 E.01281
G1 X106.342 Y107.457 E.00484
G1 X106.144 Y107.292 E.00829
G1 X105.975 Y107.093 E.0084
G1 X105.897 Y106.957 E.00504
G1 X105.754 Y107.122 E.00702
G1 X109.051 Y110.419 E.14999
G1 X108.735 Y110.65 E.01259
G1 X105.469 Y107.384 E.14858
G1 X105.129 Y107.591 E.01281
G1 X108.391 Y110.853 E.1484
G1 X108.033 Y111.042 E.01302
G1 X104.74 Y107.749 E.14981
G1 X104.436 Y107.83 E.01012
G1 X104.288 Y107.844 E.00478
G1 X107.66 Y111.217 E.15343
G1 X107.269 Y111.373 E.01354
G1 X103.563 Y107.667 E.1686
M204 S1000
G1 E-3.6 F2400
;WIPE_START
G1 F8640
G1 X107.269 Y111.373 E-1.38306
G1 X107.66 Y111.217 E-.11109
G1 X105.233 Y108.789 E-.90585
;WIPE_END
G1 Z.275 F10800
G1 X106.262 Y101.612
G1 Z.2
G1 E6 F3000
M204 S800
G1 F1200
G1 X103.138 Y98.488 E.14212
G1 X102.731 Y98.627 E.01384
G1 X105.328 Y101.224 E.11815
G1 X104.764 Y101.208 E.01815
G1 X102.34 Y98.783 E.1103
G1 X101.967 Y98.958 E.01325
G1 X104.24 Y101.231 E.10341
G1 X103.755 Y101.293 E.01573
G1 X101.609 Y99.147 E.09763
G1 X101.265 Y99.35 E.01285
G1 X103.342 Y101.427 E.09449
G1 X102.941 Y101.573 E.01373
G1 X100.949 Y99.581 E.09062
G1 X100.641 Y99.82 E.01254
G1 X102.579 Y101.759 E.08819
G1 X102.341 Y101.911 E.00908
G1 X102.262 Y101.988 E.00355
G1 X100.353 Y100.08 E.08683
G1 X100.08 Y100.353 E.01242
G1 X101.985 Y102.259 E.08669
G1 X101.811 Y102.428 E.0078
G1 X101.727 Y102.548 E.00471
G1 X99.82 Y100.641 E.08676
G1 X99.581 Y100.949 E.01254
G1 X101.533 Y102.901 E.0888
G1 X101.353 Y103.268 E.01315
