;FLAVOR:Marlin
;TIME:860
;Filament used: 0.631113m
;Layer height: 0.2
;MINX:84.435
;MINY:84.482
;MINZ:0.3
;MAXX:125.565
;MAXY:125.518
;MAXZ:2.975
;TARGET_MACHINE.NAME:Anycubic i3 Mega S/Pro
;Generated with Cura_SteamEngine 5.6.0
M82 ;absolute extrusion mode
;Profil Homepage: https://github.com/NilsRo/Cura_Anycubic_MegaS_Profile

;Slicer Information - (Support for OctoPrint Slicer Estimator)
;Slicer info:material_guid;0ff92885-617b-4144-a03c-9989872454bc
;Slicer info:material_id;generic_pla_175
;Slicer info:material_brand;Generic
;Slicer info:material_name;PLA
;Slicer info:filament_cost;[0.0]
;Slicer info:material_bed_temperature;60
;Slicer info:material_bed_temperature_layer_0;60
;Slicer info:material_print_temperature;200
;Slicer info:material_print_temperature_layer_0;205
;Slicer info:material_flow;100
;Slicer info:layer_height;0.2
;Slicer info:machine_nozzle_size;0.4
;Slicer info:wall_thickness;1.2000000000000002
;Slicer info:speed_print;50.0
;Slicer info:speed_topbottom;25.0
;Slicer info:travel_speed;100.0
;Slicer info:support;0
;Slicer info:retraction_speed;30
;Slicer info:retraction_amount;6
;Slicer info:layer_height;0.2
;Slicer info:infill_pattern;grid
;Slicer info:infill_sparse_density;25
;Slicer info:cool_fan_enabled;True
;Slicer info:cool_fan_speed;100
;Slicer info:sliced_at;Mon 08-01-2024 13:20:29
G21                                        ; metric values 
G90                                        ; absolute positioning 
M82                                        ; set extruder to absolute mode 
M900 K0                                    ; disable lin. adv. if not set in GCODE
M107                                       ; start with the fan off 
M140 S60   ; Start heating the bed 
G4 S60                                     ; wait 1 minute 
M104 S205 ; start heating the hot end 
M190 S60   ; wait for bed 
M109 S205 ; wait for hotend 
M300 S1000 P500                            ; BEEP heating done 
G28 X0 Y10 Z0                              ; move X/Y to min endstops 
M420 S1                                    ; Enable leveling 
M420 Z2.0                                  ; Set leveling fading height to 2 mm 
G0 Z0.15                                   ; lift nozzle a bit 
G92 E0                                     ; zero the extruded length 
G1 X50 E20 F500                            ; Extrude 20mm of filament in a 5cm line. 
G92 E0                                     ; zero the extruded length again 
G1 E-2 F500                                ; Retract a little 
G1 X50 F500                                ; wipe away from the filament line
G1 X100 F9000                              ; Quickly wipe away from the filament line
G92 E0
G92 E0
G1 F1800 E-6
;LAYER_COUNT:14
;LAYER:0
M106 S76.5
M205 X10 Y10
G1 F480 Z0.375
G0 F6000 X90.8 Y90.12 Z0.375
M205 X8 Y8
;TYPE:SKIRT
G1 F480 Z0.3
G1 F1800 E0
G1 F1200 X91.319 Y89.616 E0.03609
G1 X92.474 Y88.739 E0.10845
G1 X93.729 Y87.829 E0.18578
G1 X94.267 Y87.452 E0.21856
G1 X95.076 Y86.984 E0.26519
G1 X96.133 Y86.489 E0.32342
G1 X98.081 Y85.631 E0.42961
G1 X98.812 Y85.364 E0.46844
G1 X100.179 Y85.048 E0.53844
G1 X102.239 Y84.619 E0.64342
G1 X103.273 Y84.503 E0.69533
G1 X104.406 Y84.482 E0.75186
G1 X105.867 Y84.482 E0.82475
G1 X106.619 Y84.494 E0.86227
G1 X107.56 Y84.591 E0.90947
G1 X108.726 Y84.816 E0.96871
G1 X110.176 Y85.125 E1.04268
G1 X110.855 Y85.281 E1.07744
G1 X111.752 Y85.57 E1.12445
G1 X112.838 Y86.029 E1.18328
G1 X114.767 Y86.898 E1.28883
G1 X115.413 Y87.239 E1.32527
G1 X116.6 Y88.067 E1.39748
G1 X117.834 Y88.964 E1.47359
G1 X118.372 Y89.369 E1.50718
G1 X119.067 Y89.993 E1.55378
G1 X119.816 Y90.792 E1.60842
G1 X120.891 Y91.987 E1.68861
G1 X121.329 Y92.49 E1.72189
G1 X121.885 Y93.253 E1.76899
G1 X122.487 Y94.253 E1.82722
G1 X123.542 Y96.1 E1.93334
G1 X123.955 Y97.011 E1.98324
G1 X124.335 Y98.11 E2.04126
G1 X124.801 Y99.545 E2.11653
G1 X125.005 Y100.208 E2.15114
G1 X125.204 Y101.139 E2.19864
G1 X125.346 Y102.281 E2.25605
G1 X125.504 Y103.796 E2.33204
G1 X125.564 Y104.469 E2.36575
G1 X125.565 Y105.416 E2.413
G1 X125.466 Y106.569 E2.47073
G1 X125.315 Y108.007 E2.54287
G1 X125.223 Y108.762 E2.58082
G1 X125.027 Y109.693 E2.62828
G1 X124.686 Y110.81 E2.68655
G1 X124.02 Y112.827 E2.79252
G1 X123.637 Y113.707 E2.8404
G1 X123.057 Y114.761 E2.90042
G1 X121.943 Y116.664 E3.01043
G1 X121.392 Y117.426 E3.05735
G1 X120.628 Y118.308 E3.11556
G1 X119.2 Y119.88 E3.22152
G1 X118.68 Y120.385 E3.25768
G1 X117.525 Y121.261 E3.33
G1 X116.291 Y122.156 E3.40606
G1 X115.737 Y122.545 E3.43983
G1 X114.924 Y123.016 E3.4867
G1 X113.867 Y123.511 E3.54494
G1 X111.919 Y124.369 E3.65113
G1 X111.188 Y124.636 E3.68996
G1 X109.821 Y124.952 E3.75996
G1 X107.761 Y125.381 E3.86493
G1 X106.727 Y125.497 E3.91684
G1 X105.587 Y125.518 E3.97373
G1 X104.06 Y125.517 E4.04991
G1 X103.381 Y125.506 E4.08379
G1 X102.44 Y125.409 E4.13099
G1 X101.274 Y125.184 E4.19023
G1 X99.824 Y124.875 E4.2642
G1 X99.145 Y124.719 E4.29895
G1 X98.248 Y124.43 E4.34597
G1 X97.162 Y123.971 E4.40479
G1 X95.233 Y123.102 E4.51035
G1 X94.589 Y122.762 E4.54668
G1 X93.396 Y121.93 E4.61924
G1 X92.166 Y121.036 E4.6951
G1 X91.628 Y120.631 E4.7287
G1 X90.934 Y120.008 E4.77523
G1 X90.157 Y119.18 E4.83188
G1 X89.109 Y118.013 E4.91013
G1 X88.671 Y117.51 E4.9434
G1 X88.115 Y116.747 E4.99051
G1 X87.513 Y115.747 E5.04874
G1 X86.458 Y113.9 E5.15486
G1 X86.045 Y112.989 E5.20476
G1 X85.665 Y111.89 E5.26278
G1 X85.199 Y110.455 E5.33805
G1 X84.995 Y109.792 E5.37266
G1 X84.796 Y108.861 E5.42015
G1 X84.654 Y107.719 E5.47757
G1 X84.496 Y106.204 E5.55356
G1 X84.436 Y105.531 E5.58727
G1 X84.435 Y104.584 E5.63451
G1 X84.534 Y103.431 E5.69225
G1 X84.685 Y101.993 E5.76439
G1 X84.776 Y101.238 E5.80233
G1 X84.973 Y100.305 E5.8499
G1 X85.314 Y99.19 E5.90807
G1 X85.98 Y97.173 E6.01404
G1 X86.363 Y96.293 E6.06192
G1 X86.943 Y95.239 E6.12194
G1 X88.057 Y93.336 E6.23196
G1 X88.608 Y92.574 E6.27887
G1 X89.372 Y91.692 E6.33709
G1 X90.8 Y90.12 E6.44304
M205 X10 Y10
G0 F6000 X91.079 Y90.407
M205 X8 Y8
G1 F1200 X91.598 Y89.903 E6.47913
G1 X92.709 Y89.063 E6.54862
G1 X93.959 Y88.156 E6.62567
G1 X94.468 Y87.798 E6.65672
G1 X95.246 Y87.346 E6.70161
G1 X96.294 Y86.855 E6.75935
G1 X98.22 Y86.006 E6.86436
G1 X98.902 Y85.754 E6.90063
G1 X100.261 Y85.44 E6.97022
G1 X102.321 Y85.011 E7.0752
G1 X103.28 Y84.903 E7.12334
G1 X104.413 Y84.882 E7.17988
G1 X105.861 Y84.882 E7.25212
G1 X106.579 Y84.892 E7.28794
G1 X107.484 Y84.984 E7.33333
G1 X108.643 Y85.207 E7.39221
G1 X110.087 Y85.515 E7.46587
G1 X110.733 Y85.662 E7.49893
G1 X111.596 Y85.939 E7.54415
G1 X112.674 Y86.394 E7.60252
G1 X114.58 Y87.252 E7.7068
G1 X115.226 Y87.593 E7.74325
G1 X116.365 Y88.39 E7.8126
G1 X117.594 Y89.284 E7.88842
G1 X118.105 Y89.667 E7.92028
G1 X118.775 Y90.267 E7.96515
G1 X119.519 Y91.06 E8.0194
G1 X120.59 Y92.25 E8.09928
G1 X121.006 Y92.726 E8.13081
G1 X121.542 Y93.459 E8.17612
G1 X122.14 Y94.452 E8.23395
G1 X123.178 Y96.266 E8.33822
G1 X123.577 Y97.142 E8.38624
G1 X123.955 Y98.233 E8.44385
G1 X124.419 Y99.663 E8.51885
G1 X124.614 Y100.292 E8.55171
G1 X124.807 Y101.188 E8.59743
G1 X124.948 Y102.323 E8.65449
G1 X125.106 Y103.832 E8.73019
G1 X125.164 Y104.47 E8.76215
G1 X125.166 Y105.382 E8.80765
G1 X125.068 Y106.527 E8.86498
G1 X124.918 Y107.96 E8.93687
G1 X124.832 Y108.68 E8.97304
G1 X124.644 Y109.576 E9.01872
G1 X124.306 Y110.685 E9.07656
G1 X123.653 Y112.667 E9.18067
G1 X123.27 Y113.547 E9.22855
G1 X122.712 Y114.559 E9.28621
G1 X121.619 Y116.43 E9.39431
G1 X121.089 Y117.164 E9.43948
G1 X120.332 Y118.039 E9.4972
G1 X118.921 Y119.593 E9.60192
G1 X118.401 Y120.098 E9.63809
G1 X117.29 Y120.937 E9.70754
G1 X116.061 Y121.829 E9.78331
G1 X115.536 Y122.199 E9.81535
G1 X114.754 Y122.654 E9.86049
G1 X113.706 Y123.145 E9.91823
G1 X111.78 Y123.994 E10.02324
G1 X111.098 Y124.246 E10.05951
G1 X109.739 Y124.56 E10.1291
G1 X107.679 Y124.989 E10.23408
G1 X106.72 Y125.097 E10.28222
G1 X105.587 Y125.118 E10.33876
G1 X104.066 Y125.117 E10.41464
G1 X103.421 Y125.108 E10.44682
G1 X102.516 Y125.016 E10.49221
G1 X101.357 Y124.793 E10.55109
G1 X99.913 Y124.485 E10.62475
G1 X99.267 Y124.338 E10.65781
G1 X98.404 Y124.061 E10.70302
G1 X97.326 Y123.606 E10.7614
G1 X95.42 Y122.748 E10.86568
G1 X94.776 Y122.408 E10.90201
G1 X93.631 Y121.607 E10.97173
G1 X92.406 Y120.716 E11.0473
G1 X91.895 Y120.333 E11.07916
G1 X91.226 Y119.734 E11.12396
G1 X90.455 Y118.913 E11.18015
G1 X89.41 Y117.75 E11.25815
G1 X88.994 Y117.274 E11.28969
G1 X88.458 Y116.541 E11.335
G1 X87.86 Y115.548 E11.39283
G1 X86.822 Y113.734 E11.4971
G1 X86.423 Y112.858 E11.54512
G1 X86.045 Y111.767 E11.60273
G1 X85.581 Y110.337 E11.67773
G1 X85.386 Y109.708 E11.71058
G1 X85.193 Y108.812 E11.75631
G1 X85.052 Y107.677 E11.81337
G1 X84.894 Y106.168 E11.88907
G1 X84.836 Y105.53 E11.92103
G1 X84.834 Y104.618 E11.96653
G1 X84.932 Y103.473 E12.02386
G1 X85.082 Y102.04 E12.09575
G1 X85.168 Y101.32 E12.13192
G1 X85.356 Y100.422 E12.17769
G1 X85.694 Y99.315 E12.23544
G1 X86.347 Y97.333 E12.33955
G1 X86.73 Y96.453 E12.38743
G1 X87.288 Y95.441 E12.44509
G1 X88.381 Y93.57 E12.55319
G1 X88.911 Y92.836 E12.59836
G1 X89.668 Y91.961 E12.65608
G1 X91.079 Y90.407 E12.7608
M205 X10 Y10
G1 F1800 E6.7608
G1 F480 Z0.375
;MESH:washer.stl
G0 F6000 X106.096 Y113.94 Z0.375
M205 X8 Y8
;TYPE:WALL-INNER
G1 F480 Z0.3
G1 F1800 E12.7608
G1 F1200 X103.905 Y113.94 E12.87011
G1 X101.818 Y113.425 E12.97736
G1 X99.897 Y112.42 E13.08552
G1 X98.244 Y110.953 E13.19578
G1 X97.019 Y109.175 E13.3035
G1 X96.254 Y107.156 E13.41122
G1 X95.992 Y105 E13.51957
G1 X96.253 Y102.848 E13.62772
G1 X97.019 Y100.825 E13.73564
G1 X98.244 Y99.047 E13.84336
G1 X99.897 Y97.58 E13.95363
G1 X101.814 Y96.577 E14.06157
G1 X103.904 Y96.06 E14.16898
G1 X106.1 Y96.06 E14.27854
G1 X108.19 Y96.578 E14.38596
G1 X110.106 Y97.581 E14.49386
G1 X111.756 Y99.047 E14.60398
G1 X112.979 Y100.822 E14.71152
G1 X113.747 Y102.847 E14.81957
G1 X114.009 Y105 E14.92777
G1 X113.746 Y107.16 E15.03633
G1 X112.979 Y109.178 E15.14404
G1 X111.756 Y110.953 E15.25158
G1 X110.106 Y112.419 E15.36169
G1 X108.182 Y113.425 E15.47001
G1 X106.096 Y113.94 E15.57721
M205 X10 Y10
G0 F6000 X106.044 Y113.541
M205 X8 Y8
G1 F1200 X103.96 Y113.541 E15.68118
G1 X101.957 Y113.048 E15.78409
G1 X100.12 Y112.086 E15.88754
G1 X98.566 Y110.707 E15.9912
G1 X97.377 Y108.991 E16.09535
G1 X96.644 Y107.057 E16.19854
G1 X96.395 Y105 E16.30191
G1 X96.644 Y102.944 E16.40524
G1 X97.377 Y101.009 E16.50847
G1 X98.559 Y99.294 E16.61238
G1 X100.12 Y97.914 E16.71633
G1 X101.958 Y96.953 E16.81981
G1 X103.96 Y96.459 E16.92268
G1 X106.045 Y96.459 E17.0267
G1 X108.046 Y96.954 E17.12954
G1 X109.894 Y97.921 E17.2336
G1 X111.435 Y99.293 E17.33654
G1 X112.621 Y101.005 E17.44044
G1 X113.355 Y102.939 E17.54364
G1 X113.606 Y105 E17.64723
G1 X113.355 Y107.061 E17.75081
G1 X112.605 Y109.019 E17.85542
G1 X111.435 Y110.707 E17.95788
G1 X109.901 Y112.068 E18.06019
G1 X108.047 Y113.046 E18.16477
G1 X106.044 Y113.541 E18.26771
M205 X10 Y10
G1 F1800 E12.26771
G1 F480 Z0.375
G0 F6000 X106.463 Y118.918 Z0.375
M205 X8 Y8
G1 F480 Z0.3
G1 F1800 E18.26771
G1 F1200 X109.326 Y118.309 E18.41374
G1 X111.999 Y117.117 E18.55975
G1 X114.363 Y115.4 E18.70552
G1 X116.319 Y113.228 E18.85135
G1 X117.784 Y110.693 E18.99742
G1 X118.687 Y107.911 E19.14334
G1 X118.992 Y105 E19.28937
G1 X118.687 Y102.089 E19.43539
G1 X117.784 Y99.307 E19.58131
G1 X116.318 Y96.771 E19.72746
G1 X114.363 Y94.6 E19.87321
G1 X112 Y92.883 E20.01894
G1 X109.326 Y91.691 E20.165
G1 X106.463 Y91.083 E20.31102
G1 X103.537 Y91.082 E20.457
G1 X100.674 Y91.691 E20.60303
G1 X98 Y92.883 E20.74909
G1 X95.637 Y94.6 E20.89482
G1 X93.682 Y96.771 E21.04057
G1 X92.217 Y99.307 E21.18669
G1 X91.313 Y102.089 E21.33262
G1 X91.008 Y105 E21.47865
G1 X91.313 Y107.911 E21.62468
G1 X92.217 Y110.693 E21.77061
G1 X93.681 Y113.228 E21.91666
G1 X95.637 Y115.4 E22.06249
G1 X98.001 Y117.117 E22.20825
G1 X100.675 Y118.309 E22.35431
G1 X103.537 Y118.918 E22.5003
G1 X106.463 Y118.918 E22.64628
M205 X10 Y10
G0 F6000 X106.505 Y119.318
M205 X8 Y8
G1 F1200 X109.45 Y118.692 E22.79648
G1 X112.201 Y117.465 E22.94677
G1 X114.632 Y115.699 E23.09667
G1 X116.644 Y113.465 E23.24667
G1 X118.151 Y110.857 E23.39694
G1 X119.08 Y107.994 E23.54711
G1 X119.394 Y105 E23.6973
G1 X119.08 Y102.006 E23.84749
G1 X118.151 Y99.143 E23.99766
G1 X116.643 Y96.534 E24.148
G1 X114.632 Y94.301 E24.29792
G1 X112.201 Y92.535 E24.44783
G1 X109.45 Y91.308 E24.59811
G1 X106.505 Y90.683 E24.74831
G1 X103.495 Y90.682 E24.89848
G1 X100.55 Y91.308 E25.04869
G1 X97.799 Y92.535 E25.19897
G1 X95.368 Y94.301 E25.34888
G1 X93.357 Y96.534 E25.4988
G1 X91.849 Y99.143 E25.64914
G1 X90.92 Y102.006 E25.79931
G1 X90.606 Y105 E25.9495
G1 X90.92 Y107.994 E26.09969
G1 X91.849 Y110.857 E26.24986
G1 X93.356 Y113.465 E26.40013
G1 X95.368 Y115.699 E26.55012
G1 X97.799 Y117.465 E26.70003
G1 X100.55 Y118.692 E26.85031
G1 X103.495 Y119.318 E27.00052
G1 X106.505 Y119.318 E27.15069
M205 X10 Y10
G0 F6000 X106.547 Y119.718
M205 X8 Y8
;TYPE:WALL-OUTER
G1 F1200 X109.574 Y119.074 E27.30509
G1 X112.402 Y117.813 E27.45957
G1 X114.901 Y115.998 E27.61366
G1 X116.97 Y113.701 E27.76789
G1 X118.519 Y111.021 E27.92232
G1 X119.474 Y108.078 E28.07669
G1 X119.796 Y105 E28.23109
G1 X119.474 Y101.922 E28.38549
G1 X118.519 Y98.979 E28.53985
G1 X116.969 Y96.298 E28.69435
G1 X114.901 Y94.002 E28.84851
G1 X112.402 Y92.187 E29.0026
G1 X109.574 Y90.926 E29.15708
G1 X106.547 Y90.283 E29.31147
G1 X103.453 Y90.282 E29.46583
G1 X100.426 Y90.926 E29.62023
G1 X97.598 Y92.187 E29.77471
G1 X95.099 Y94.002 E29.9288
G1 X93.031 Y96.298 E30.08296
G1 X91.481 Y98.979 E30.23746
G1 X90.526 Y101.922 E30.39182
G1 X90.204 Y105 E30.54622
G1 X90.526 Y108.078 E30.70062
G1 X91.481 Y111.021 E30.85499
G1 X93.03 Y113.701 E31.00942
G1 X95.099 Y115.998 E31.16365
G1 X97.598 Y117.813 E31.31774
G1 X100.426 Y119.074 E31.47222
G1 X103.453 Y119.718 E31.62662
G1 X106.547 Y119.718 E31.78098
M205 X10 Y10
G0 F6000 X106.742 Y119.677
G1 F1800 E25.78098
G1 F480 Z0.375
G0 F6000 X105.978 Y113.142 Z0.375
M205 X8 Y8
G1 F480 Z0.3
G1 F1800 E31.78098
G1 F1200 X104.022 Y113.142 E31.87856
G1 X102.073 Y112.658 E31.97875
G1 X100.335 Y111.744 E32.07672
G1 X98.863 Y110.439 E32.17486
G1 X97.742 Y108.819 E32.27315
G1 X97.041 Y106.977 E32.37148
G1 X96.801 Y105.025 E32.4696
G1 X97.033 Y103.057 E32.56846
G1 X97.742 Y101.181 E32.66852
G1 X98.863 Y99.561 E32.7668
G1 X100.335 Y98.256 E32.86494
G1 X102.084 Y97.337 E32.96351
G1 X104.022 Y96.858 E33.06311
G1 X105.978 Y96.858 E33.1607
G1 X107.927 Y97.342 E33.26089
G1 X109.665 Y98.256 E33.35885
G1 X111.137 Y99.561 E33.457
G1 X112.258 Y101.181 E33.55528
G1 X112.959 Y103.023 E33.65361
G1 X113.2 Y104.979 E33.75193
G1 X112.967 Y106.943 E33.85061
G1 X112.258 Y108.819 E33.95066
G1 X111.137 Y110.439 E34.04895
G1 X109.665 Y111.744 E34.14709
G1 X107.916 Y112.663 E34.24566
G1 X105.978 Y113.142 E34.34526
M205 X10 Y10
G0 F6000 X105.778 Y113.142
G1 F1800 E28.34526
G1 F480 Z0.375
G0 F6000 X106.423 Y118.538 Z0.375
M205 X8 Y8
;TYPE:SKIN
G1 F480 Z0.3
G1 F1800 E34.34526
G1 F1200 X103.577 Y118.537 E34.48724
G1 X100.792 Y117.945 E34.62929
G1 X98.189 Y116.783 E34.77151
G1 X95.895 Y115.117 E34.91295
G1 X93.994 Y113.008 E35.05461
G1 X92.564 Y110.533 E35.19721
G1 X91.688 Y107.832 E35.33888
G1 X91.393 Y105 E35.48093
G1 X91.688 Y102.168 E35.62299
G1 X92.565 Y99.464 E35.76481
G1 X93.997 Y96.989 E35.90746
G1 X95.895 Y94.883 E36.04891
G1 X98.189 Y93.217 E36.19035
G1 X100.792 Y92.055 E36.33257
G1 X103.576 Y91.463 E36.47457
G1 X106.423 Y91.463 E36.6166
G1 X109.208 Y92.055 E36.75865
G1 X111.811 Y93.217 E36.90087
G1 X114.105 Y94.883 E37.04231
G1 X116.003 Y96.989 E37.18376
G1 X117.435 Y99.463 E37.32637
G1 X118.312 Y102.168 E37.46824
G1 X118.607 Y105 E37.61029
G1 X118.312 Y107.832 E37.75235
G1 X117.435 Y110.537 E37.89422
G1 X116.006 Y113.008 E38.03662
G1 X114.105 Y115.116 E38.17824
G1 X111.811 Y116.783 E38.31972
G1 X109.208 Y117.945 E38.46193
G1 X106.423 Y118.538 E38.60399
M205 X10 Y10
G1 F1800 E32.60399
G1 F480 Z0.375
G0 F6000 X106.162 Y114.316 Z0.375
M205 X8 Y8
G1 F480 Z0.3
G1 F1800 E38.60399
G1 F1200 X108.328 Y113.776 E38.71536
G1 X110.325 Y112.733 E38.82776
G1 X112.029 Y111.228 E38.94119
